img/sponsor-code-first-girls.svg

<svg width="298" height="66" viewBox="0 0 298 66" xmlns="http://www.w3.org/2000/svg"><title>code-first-girls</title><g fill="#005EC6" fill-rule="evenodd"><path d="M65.7 36.7c-.7-.8-1.5-1.5-2.3-1.9-.9-.5-1.9-.7-3-.7-.9 0-1.8.2-2.6.6-.8.4-1.5.9-2 1.5-.6.6-1 1.4-1.4 2.2-.3.8-.5 1.7-.5 2.6 0 .9.2 1.8.5 2.6s.8 1.6 1.4 2.2c.6.6 1.3 1.2 2.1 1.5.8.4 1.7.6 2.6.6 1.1 0 2-.2 2.8-.7.8-.5 1.5-1.1 2.2-1.8h4.3c-.4.9-.9 1.7-1.5 2.5-.6.7-1.4 1.4-2.2 1.9-.8.5-1.7.9-2.6 1.2-.9.3-1.9.4-2.8.4-1.4 0-2.8-.3-4-.8-1.3-.6-2.4-1.3-3.3-2.3-.9-1-1.7-2.1-2.2-3.3-.5-1.3-.8-2.6-.8-4s.3-2.7.8-4c.5-1.2 1.3-2.3 2.2-3.3.9-.9 2-1.7 3.3-2.2 1.2-.5 2.6-.8 4-.8 1 0 2 .1 3 .4 1 .3 1.8.7 2.7 1.2.8.5 1.5 1.2 2.2 1.9.7.7 1.2 1.6 1.6 2.5h-4.5zm18.8 14.6c-1.4 0-2.8-.3-4-.8-1.3-.5-2.4-1.3-3.3-2.2-.9-.9-1.7-2-2.2-3.3-.6-1.3-.8-2.6-.8-4 0-1.5.3-2.8.8-4.1.5-1.3 1.3-2.4 2.2-3.3.9-.9 2.1-1.7 3.3-2.2 1.3-.5 2.6-.8 4-.8s2.8.3 4.1.8c1.3.5 2.4 1.3 3.3 2.2.9.9 1.7 2 2.2 3.3.6 1.3.8 2.6.8 4.1 0 1.4-.3 2.8-.8 4-.6 1.3-1.3 2.3-2.3 3.3-.9.9-2.1 1.7-3.3 2.2-1.3.5-2.6.8-4 .8zm0-17.2c-.9 0-1.8.2-2.6.6-.8.4-1.5.9-2.1 1.5-.6.6-1.1 1.4-1.4 2.2-.3.8-.5 1.7-.5 2.7 0 .9.2 1.8.5 2.6s.8 1.6 1.4 2.2c.6.6 1.3 1.1 2.1 1.5.8.4 1.7.6 2.6.6.9 0 1.8-.2 2.6-.6.8-.4 1.5-.9 2.1-1.5.6-.6 1.1-1.4 1.4-2.2.3-.8.5-1.7.5-2.6 0-.9-.2-1.8-.5-2.7-.3-.8-.8-1.6-1.4-2.2-.6-.6-1.3-1.1-2.1-1.5-.8-.4-1.7-.6-2.6-.6zm26 15.9c-.5.3-1 .5-1.6.7-.6.2-1.2.3-1.7.4-.6.1-1.2.2-1.8.2-.6 0-1.2.1-1.7.1h-4.8V30.6h4.7c.7 0 1.5 0 2.2.1.8.1 1.5.2 2.3.4.7.2 1.5.4 2.1.7.7.3 1.3.7 1.9 1.2 1.1 1 2 2.2 2.6 3.6.6 1.4.9 2.9.9 4.4 0 .9-.1 1.8-.3 2.7-.2.9-.5 1.7-1 2.5-.4.8-.9 1.5-1.6 2.2-.7.6-1.4 1.1-2.2 1.6zm-1-14.1c-.5-.4-1-.8-1.5-1-.5-.2-1.1-.4-1.7-.5-.6-.1-1.2-.2-1.8-.2h-1.8v13.6h.8c.9 0 1.8 0 2.6-.2.8-.1 1.6-.4 2.4-.9 1-.6 1.8-1.4 2.3-2.4.5-1 .8-2.1.8-3.3 0-.9-.2-1.9-.6-2.8-.3-.9-.8-1.6-1.5-2.3zm10.2-5.3h11.2v3.6h-7.3v5.1h4.1v3.6h-4.1v4.9h7.3v3.6h-11.2V30.6zm19.1 3.6v5.1h4.1v3.6h-4.1v8.4H135V30.6h11.1v3.6h-7.3zm11.1-3.6h3.8v20.7h-3.8V30.6zm24.6 20.7h-4.6l-7.5-10.8h4.4c.5 0 1-.1 1.4-.2.5-.1.8-.3 1.2-.6.3-.3.6-.6.8-1 .2-.4.3-.9.3-1.4 0-.5-.1-1-.3-1.4-.2-.4-.5-.7-.8-1-.3-.3-.7-.5-1.2-.6-.4-.1-.9-.2-1.4-.2h-5.4v17.2h-3.8V30.6h9.3c.9 0 1.8.1 2.6.3.8.2 1.6.5 2.4 1.1.8.6 1.4 1.4 1.8 2.3.4.9.6 1.8.6 2.8 0 .9-.2 1.8-.5 2.7-.3.9-.8 1.7-1.4 2.3-.5.5-1.1.9-1.6 1.1-.5.2-1.2.4-1.8.6l5.5 7.5zm10.8-12.5c.8.3 1.5.6 2.1.9.6.3 1.2.8 1.7 1.2.5.5.8 1.1 1.1 1.7.3.7.4 1.4.4 2.3 0 .9-.2 1.8-.5 2.6s-.8 1.5-1.4 2c-.6.6-1.3 1-2 1.3-.8.3-1.6.5-2.6.5h-5.8v-3.5h5.8c.7 0 1.4-.2 1.9-.6.5-.4.8-1 .8-1.8 0-.6-.1-1-.3-1.4-.2-.4-.5-.7-.9-.9l-1.2-.6c-.5-.2-.9-.3-1.3-.5-.3-.1-.6-.3-.9-.4-.3-.1-.6-.3-.9-.4-1-.5-1.8-1.2-2.2-2-.5-.8-.7-1.8-.7-2.9 0-.8.1-1.6.4-2.3.3-.7.7-1.3 1.2-1.8s1.1-.9 1.8-1.2c.7-.3 1.5-.4 2.3-.5h6.5V34H184c-.6 0-1 .2-1.4.6-.4.4-.6.9-.6 1.5 0 .5.1.9.3 1.2.2.3.5.6.8.8.3.2.7.4 1.1.5.3 0 .7.1 1.1.2zM202 51.3h-3.8V34.2h-3.8v-3.6h11.5v3.6H202v17.1zm9.1-11.6V36h3.7v3.7h-3.7zm0 11.6v-3.7h3.7v3.7h-3.7zm32.1-18.2l-3.5 16.3c-1.4 6.6-4 10.8-11.1 10.8-4.1 0-6-3-6-6 0-2.9 1.9-5.9 5.3-5.9 1.7 0 4.2.1 4.2 2.9 0 .5-.1 1.1-.3 1.7-1.1-.9-1.7-1.1-2.6-1.1-2 0-3 1.7-3 3.3 0 1.5.9 2.9 2.7 2.9 1.9 0 3.3-.9 4.3-5.3l1.7-7.7c-2.5 1.3-4.9 1.6-5.3 1.6-7 0-9.3-5.1-9.3-11.1 0-8.3 5.7-16.6 15.3-16.6 4 0 8 1.6 8 5.8 0 2.3-.8 4-3 4-.7 0-2.2-.2-3-1.1 1.1-.3 1.9-2.5 1.9-3.5 0-.7-.2-3.1-3-3.1-4.8 0-9.6 8.1-9.6 15 0 3.8 1.4 7.1 5 7.1 1.6 0 2.8-.4 3.7-1.6l1.9-8.2 5.7-.2zm10.6-3.5l-3.1 14.7c-.1.6-.2 1-.2 1.4 0 1.2.6 1.6 1.8 1.6 1.7 0 3.2-1.6 3.9-3.8h1.8c-2.5 7-6.7 8-9.1 8-2.6 0-4.6-1.6-4.6-5.2 0-.8.1-1.8.3-2.8l2.9-13.9h6.3zm-2-9.2c1.9 0 3.5 1.6 3.5 3.5s-1.6 3.4-3.5 3.4-3.4-1.5-3.4-3.4c0-2 1.5-3.5 3.4-3.5z"/><path d="M265.3 29.6l-.6 2.7c1.5-1.3 3.2-2.7 5.2-2.7 1.9 0 3 1.6 3 3.2 0 1.5-1 3.2-3.1 3.2-2.4 0-1.2-2.9-2.5-2.9s-2.1.6-3.2 1.6l-3.5 16.4h-6.2l4.6-21.6h6.3v.1zm18.1-8.7l-5 23.3c-.1.6-.2 1-.2 1.4 0 1.2.6 1.6 1.8 1.6 1.7 0 3.2-1.6 3.9-3.8h1.8c-2.5 7-6.7 8-9.1 8-2.6 0-4.6-1.6-4.6-5.2 0-.8.1-1.8.3-2.8l4.6-21.7 6.5-.8z"/><path d="M296.5 28.3c.5 11.2 1 12.9 1 15.7 0 5.6-5.1 7.5-8.6 7.5-4.4 0-6.3-2.9-6.3-5.5 0-2 1.1-3.5 2.3-4 2.4-4.3 4-8.6 5.3-12.8l6.3-.9zM286 45.6c-.4 0-1-.1-1.2-.6 0 2 .7 3 2.6 3 1.9 0 3.8-1 3.8-4 0-2.2-.4-3.6-.8-10.2-.9 2.8-2.1 5.4-3.5 8.2.6.3 1 .8 1 1.5 0 1-.8 2.1-1.9 2.1z"/><circle cx="20.7" cy="13.9" r="5"/><path d="M28.4 61.9h-7.7c-.9 0-1.7.8-1.7 1.7 0 .9.8 1.7 1.7 1.7h7.7c.9 0 1.7-.8 1.7-1.7 0-1-.8-1.7-1.7-1.7zM9.1 43.2c.6.5 1.3.8 2 .8 1.7 0 3-1.3 3-3 0-.4-.1-.7-.2-1.1.9-3.7 3.3-12.3 6.7-11.6 2 .4 1.7 1.5.7 4.3-.5 1.4-2.9 8.6-2.9 12.5H14c-.9 0-1.7.8-1.7 1.7v.2c0 .9.8 1.7 1.7 1.7h21.1c.9 0 1.7-.8 1.7-1.7v-.2c0-.9-.8-1.7-1.7-1.7h-4c1.9-3.1 3.2-8-.7-14.1-3-4.6-2.6-7.8.4-11 1.4-1.5 4-5.3 5.3-9.1 4 3.3 6.5 8.3 6.5 13.9 0 5.3-2.3 10.3-6.3 13.7C35.5 39 35 40 35 41c0 1.7 1.3 3 3 3 .8 0 1.5-.3 2-.8 5.5-4.6 8.6-11.3 8.6-18.4C48.6 11.5 37.8.7 24.5.7S.4 11.5.4 24.8c.1 7.1 3.2 13.8 8.7 18.4zM24.6 6.7c3.1 0 6 .8 8.6 2.2-1.1 3-3.3 6.9-8.3 10.1-10 6.4-13 14-13.3 18.4-3.3-3.4-5.1-7.9-5.1-12.6 0-10 8.1-18.1 18.1-18.1zm10.5 43.9H14c-.9 0-1.7.8-1.7 1.7v.2c0 .9.8 1.7 1.7 1.7h21.1c.9 0 1.7-.8 1.7-1.7v-.2c0-.9-.7-1.7-1.7-1.7zm0 5.5H14c-.9 0-1.7.8-1.7 1.7v.2c0 .9.8 1.7 1.7 1.7h21.1c.9 0 1.7-.8 1.7-1.7v-.2c0-1-.7-1.7-1.7-1.7z"/></g></svg>

<?xml version="1.0" encoding="UTF-8" standalone="no"?>
<svg width="298px" height="66px" viewBox="0 0 298 66" version="1.1" xmlns="http://www.w3.org/2000/svg" xmlns:xlink="http://www.w3.org/1999/xlink" xmlns:sketch="http://www.bohemiancoding.com/sketch/ns">
    <!-- Generator: Sketch 3.3.3 (12072) - http://www.bohemiancoding.com/sketch -->
    <title>code-first-girls</title>
    <desc>Created with Sketch.</desc>
    <defs></defs>
    <g id="Page-1" stroke="none" stroke-width="1" fill="none" fill-rule="evenodd" sketch:type="MSPage">
        <g id="code-first-girls" sketch:type="MSLayerGroup" fill="#005EC6">
            <path d="M65.7,36.7 C65,35.9 64.2,35.2 63.4,34.8 C62.5,34.3 61.5,34.1 60.4,34.1 C59.5,34.1 58.6,34.3 57.8,34.7 C57,35.1 56.3,35.6 55.8,36.2 C55.2,36.8 54.8,37.6 54.4,38.4 C54.1,39.2 53.9,40.1 53.9,41 C53.9,41.9 54.1,42.8 54.4,43.6 C54.7,44.4 55.2,45.2 55.8,45.8 C56.4,46.4 57.1,47 57.9,47.3 C58.7,47.7 59.6,47.9 60.5,47.9 C61.6,47.9 62.5,47.7 63.3,47.2 C64.1,46.7 64.8,46.1 65.5,45.4 L69.8,45.4 C69.4,46.3 68.9,47.1 68.3,47.9 C67.7,48.6 66.9,49.3 66.1,49.8 C65.3,50.3 64.4,50.7 63.5,51 C62.6,51.3 61.6,51.4 60.7,51.4 C59.3,51.4 57.9,51.1 56.7,50.6 C55.4,50 54.3,49.3 53.4,48.3 C52.5,47.3 51.7,46.2 51.2,45 C50.7,43.7 50.4,42.4 50.4,41 C50.4,39.6 50.7,38.3 51.2,37 C51.7,35.8 52.5,34.7 53.4,33.7 C54.3,32.8 55.4,32 56.7,31.5 C57.9,31 59.3,30.7 60.7,30.7 C61.7,30.7 62.7,30.8 63.7,31.1 C64.7,31.4 65.5,31.8 66.4,32.3 C67.2,32.8 67.9,33.5 68.6,34.2 C69.3,34.9 69.8,35.8 70.2,36.7 L65.7,36.7 L65.7,36.7 Z" id="Shape" sketch:type="MSShapeGroup"></path>
            <path d="M84.5,51.3 C83.1,51.3 81.7,51 80.5,50.5 C79.2,50 78.1,49.2 77.2,48.3 C76.3,47.4 75.5,46.3 75,45 C74.4,43.7 74.2,42.4 74.2,41 C74.2,39.5 74.5,38.2 75,36.9 C75.5,35.6 76.3,34.5 77.2,33.6 C78.1,32.7 79.3,31.9 80.5,31.4 C81.8,30.9 83.1,30.6 84.5,30.6 C85.9,30.6 87.3,30.9 88.6,31.4 C89.9,31.9 91,32.7 91.9,33.6 C92.8,34.5 93.6,35.6 94.1,36.9 C94.7,38.2 94.9,39.5 94.9,41 C94.9,42.4 94.6,43.8 94.1,45 C93.5,46.3 92.8,47.3 91.8,48.3 C90.9,49.2 89.7,50 88.5,50.5 C87.2,51 85.9,51.3 84.5,51.3 L84.5,51.3 Z M84.5,34.1 C83.6,34.1 82.7,34.3 81.9,34.7 C81.1,35.1 80.4,35.6 79.8,36.2 C79.2,36.8 78.7,37.6 78.4,38.4 C78.1,39.2 77.9,40.1 77.9,41.1 C77.9,42 78.1,42.9 78.4,43.7 C78.7,44.5 79.2,45.3 79.8,45.9 C80.4,46.5 81.1,47 81.9,47.4 C82.7,47.8 83.6,48 84.5,48 C85.4,48 86.3,47.8 87.1,47.4 C87.9,47 88.6,46.5 89.2,45.9 C89.8,45.3 90.3,44.5 90.6,43.7 C90.9,42.9 91.1,42 91.1,41.1 C91.1,40.2 90.9,39.3 90.6,38.4 C90.3,37.6 89.8,36.8 89.2,36.2 C88.6,35.6 87.9,35.1 87.1,34.7 C86.3,34.3 85.4,34.1 84.5,34.1 L84.5,34.1 Z" id="Shape" sketch:type="MSShapeGroup"></path>
            <path d="M110.5,50 C110,50.3 109.5,50.5 108.9,50.7 C108.3,50.9 107.7,51 107.2,51.1 C106.6,51.2 106,51.3 105.4,51.3 C104.8,51.3 104.2,51.4 103.7,51.4 L98.9,51.4 L98.9,30.6 L103.6,30.6 C104.3,30.6 105.1,30.6 105.8,30.7 C106.6,30.8 107.3,30.9 108.1,31.1 C108.8,31.3 109.6,31.5 110.2,31.8 C110.9,32.1 111.5,32.5 112.1,33 C113.2,34 114.1,35.2 114.7,36.6 C115.3,38 115.6,39.5 115.6,41 C115.6,41.9 115.5,42.8 115.3,43.7 C115.1,44.6 114.8,45.4 114.3,46.2 C113.9,47 113.4,47.7 112.7,48.4 C112,49 111.3,49.5 110.5,50 L110.5,50 Z M109.5,35.9 C109,35.5 108.5,35.1 108,34.9 C107.5,34.7 106.9,34.5 106.3,34.4 C105.7,34.3 105.1,34.2 104.5,34.2 L102.7,34.2 L102.7,47.8 L103.5,47.8 C104.4,47.8 105.3,47.8 106.1,47.6 C106.9,47.5 107.7,47.2 108.5,46.7 C109.5,46.1 110.3,45.3 110.8,44.3 C111.3,43.3 111.6,42.2 111.6,41 C111.6,40.1 111.4,39.1 111,38.2 C110.7,37.3 110.2,36.6 109.5,35.9 L109.5,35.9 Z" id="Shape" sketch:type="MSShapeGroup"></path>
            <path d="M119.7,30.6 L130.9,30.6 L130.9,34.2 L123.6,34.2 L123.6,39.3 L127.7,39.3 L127.7,42.9 L123.6,42.9 L123.6,47.8 L130.9,47.8 L130.9,51.4 L119.7,51.4 L119.7,30.6 L119.7,30.6 Z" id="Shape" sketch:type="MSShapeGroup"></path>
            <path d="M138.8,34.2 L138.8,39.3 L142.9,39.3 L142.9,42.9 L138.8,42.9 L138.8,51.3 L135,51.3 L135,30.6 L146.1,30.6 L146.1,34.2 L138.8,34.2 L138.8,34.2 Z" id="Shape" sketch:type="MSShapeGroup"></path>
            <path d="M149.9,30.6 L153.7,30.6 L153.7,51.3 L149.9,51.3 L149.9,30.6 L149.9,30.6 Z" id="Shape" sketch:type="MSShapeGroup"></path>
            <path d="M174.5,51.3 L169.9,51.3 L162.4,40.5 L164.3,40.5 L166.8,40.5 C167.3,40.5 167.8,40.4 168.2,40.3 C168.7,40.2 169,40 169.4,39.7 C169.7,39.4 170,39.1 170.2,38.7 C170.4,38.3 170.5,37.8 170.5,37.3 C170.5,36.8 170.4,36.3 170.2,35.9 C170,35.5 169.7,35.2 169.4,34.9 C169.1,34.6 168.7,34.4 168.2,34.3 C167.8,34.2 167.3,34.1 166.8,34.1 L164.3,34.1 L161.4,34.1 L161.4,40.4 L161.4,43.3 L161.4,51.3 L157.6,51.3 L157.6,30.6 L160.5,30.6 L161.5,30.6 L166.9,30.6 C167.8,30.6 168.7,30.7 169.5,30.9 C170.3,31.1 171.1,31.4 171.9,32 C172.7,32.6 173.3,33.4 173.7,34.3 C174.1,35.2 174.3,36.1 174.3,37.1 C174.3,38 174.1,38.9 173.8,39.8 C173.5,40.7 173,41.5 172.4,42.1 C171.9,42.6 171.3,43 170.8,43.2 C170.3,43.4 169.6,43.6 169,43.8 L174.5,51.3 L174.5,51.3 Z" id="Shape" sketch:type="MSShapeGroup"></path>
            <path d="M185.3,38.8 C186.1,39.1 186.8,39.4 187.4,39.7 C188,40 188.6,40.5 189.1,40.9 C189.6,41.4 189.9,42 190.2,42.6 C190.5,43.3 190.6,44 190.6,44.9 C190.6,45.8 190.4,46.7 190.1,47.5 C189.8,48.3 189.3,49 188.7,49.5 C188.1,50.1 187.4,50.5 186.7,50.8 C185.9,51.1 185.1,51.3 184.1,51.3 L178.3,51.3 L178.3,47.8 L184.1,47.8 C184.8,47.8 185.5,47.6 186,47.2 C186.5,46.8 186.8,46.2 186.8,45.4 C186.8,44.8 186.7,44.4 186.5,44 C186.3,43.6 186,43.3 185.6,43.1 C185.2,42.9 184.8,42.7 184.4,42.5 C183.9,42.3 183.5,42.2 183.1,42 C182.8,41.9 182.5,41.7 182.2,41.6 C181.9,41.5 181.6,41.3 181.3,41.2 C180.3,40.7 179.5,40 179.1,39.2 C178.6,38.4 178.4,37.4 178.4,36.3 C178.4,35.5 178.5,34.7 178.8,34 C179.1,33.3 179.5,32.7 180,32.2 C180.5,31.7 181.1,31.3 181.8,31 C182.5,30.7 183.3,30.6 184.1,30.5 L184.2,30.5 L190.6,30.5 L190.6,34 L189.6,34 L184,34 C183.4,34 183,34.2 182.6,34.6 C182.2,35 182,35.5 182,36.1 C182,36.6 182.1,37 182.3,37.3 C182.5,37.6 182.8,37.9 183.1,38.1 C183.4,38.3 183.8,38.5 184.2,38.6 C184.5,38.6 184.9,38.7 185.3,38.8 L185.3,38.8 Z" id="Shape" sketch:type="MSShapeGroup"></path>
            <path d="M202,51.3 L198.2,51.3 L198.2,34.2 L194.4,34.2 L194.4,30.6 L205.9,30.6 L205.9,34.2 L202,34.2 L202,51.3 L202,51.3 Z" id="Shape" sketch:type="MSShapeGroup"></path>
            <path d="M211.1,39.7 L211.1,36 L214.8,36 L214.8,39.7 L211.1,39.7 L211.1,39.7 Z M211.1,51.3 L211.1,47.6 L214.8,47.6 L214.8,51.3 L211.1,51.3 L211.1,51.3 Z" id="Shape" sketch:type="MSShapeGroup"></path>
            <g id="Group" transform="translate(220.000000, 18.000000)" sketch:type="MSShapeGroup">
                <path d="M23.2,15.1 L19.7,31.4 C18.3,38 15.7,42.2 8.6,42.2 C4.5,42.2 2.6,39.2 2.6,36.2 C2.6,33.3 4.5,30.3 7.9,30.3 C9.6,30.3 12.1,30.4 12.1,33.2 C12.1,33.7 12,34.3 11.8,34.9 C10.7,34 10.1,33.8 9.2,33.8 C7.2,33.8 6.2,35.5 6.2,37.1 C6.2,38.6 7.1,40 8.9,40 C10.8,40 12.2,39.1 13.2,34.7 L14.9,27 C12.4,28.3 10,28.6 9.6,28.6 C2.6,28.6 0.3,23.5 0.3,17.5 C0.3,9.2 6,0.9 15.6,0.9 C19.6,0.9 23.6,2.5 23.6,6.7 C23.6,9 22.8,10.7 20.6,10.7 C19.9,10.7 18.4,10.5 17.6,9.6 C18.7,9.3 19.5,7.1 19.5,6.1 C19.5,5.4 19.3,3 16.5,3 C11.7,3 6.9,11.1 6.9,18 C6.9,21.8 8.3,25.1 11.9,25.1 C13.5,25.1 14.7,24.7 15.6,23.5 L17.5,15.3 L23.2,15.1 L23.2,15.1 Z" id="Shape"></path>
                <path d="M33.8,11.6 L30.7,26.3 C30.6,26.9 30.5,27.3 30.5,27.7 C30.5,28.9 31.1,29.3 32.3,29.3 C34,29.3 35.5,27.7 36.2,25.5 L38,25.5 C35.5,32.5 31.3,33.5 28.9,33.5 C26.3,33.5 24.3,31.9 24.3,28.3 C24.3,27.5 24.4,26.5 24.6,25.5 L27.5,11.6 L33.8,11.6 L33.8,11.6 Z M31.8,2.4 C33.7,2.4 35.3,4 35.3,5.9 C35.3,7.8 33.7,9.3 31.8,9.3 C29.9,9.3 28.4,7.8 28.4,5.9 C28.4,3.9 29.9,2.4 31.8,2.4 L31.8,2.4 Z" id="Shape"></path>
                <path d="M45.3,11.6 L44.7,14.3 C46.2,13 47.9,11.6 49.9,11.6 C51.8,11.6 52.9,13.2 52.9,14.8 C52.9,16.3 51.9,18 49.8,18 C47.4,18 48.6,15.1 47.3,15.1 C46,15.1 45.2,15.7 44.1,16.7 L40.6,33.1 L34.4,33.1 L39,11.5 L45.3,11.5 L45.3,11.6 Z" id="Shape"></path>
                <path d="M63.4,2.9 L58.4,26.2 C58.3,26.8 58.2,27.2 58.2,27.6 C58.2,28.8 58.8,29.2 60,29.2 C61.7,29.2 63.2,27.6 63.9,25.4 L65.7,25.4 C63.2,32.4 59,33.4 56.6,33.4 C54,33.4 52,31.8 52,28.2 C52,27.4 52.1,26.4 52.3,25.4 L56.9,3.7 L63.4,2.9 L63.4,2.9 Z" id="Shape"></path>
                <path d="M76.5,10.3 C77,21.5 77.5,23.2 77.5,26 C77.5,31.6 72.4,33.5 68.9,33.5 C64.5,33.5 62.6,30.6 62.6,28 C62.6,26 63.7,24.5 64.9,24 C67.3,19.7 68.9,15.4 70.2,11.2 L76.5,10.3 L76.5,10.3 Z M66,27.6 C65.6,27.6 65,27.5 64.8,27 C64.8,29 65.5,30 67.4,30 C69.3,30 71.2,29 71.2,26 C71.2,23.8 70.8,22.4 70.4,15.8 C69.5,18.6 68.3,21.2 66.9,24 C67.5,24.3 67.9,24.8 67.9,25.5 C67.9,26.5 67.1,27.6 66,27.6 L66,27.6 Z" id="Shape"></path>
            </g>
            <g id="Group" sketch:type="MSShapeGroup">
                <circle id="Oval" cx="20.7" cy="13.9" r="5"></circle>
                <path d="M28.4,61.9 L20.7,61.9 C19.8,61.9 19,62.7 19,63.6 C19,64.5 19.8,65.3 20.7,65.3 L28.4,65.3 C29.3,65.3 30.1,64.5 30.1,63.6 C30.1,62.6 29.3,61.9 28.4,61.9 L28.4,61.9 Z" id="Shape"></path>
                <path d="M9.1,43.2 L9.1,43.2 C9.7,43.7 10.4,44 11.1,44 C12.8,44 14.1,42.7 14.1,41 C14.1,40.6 14,40.3 13.9,39.9 C14.8,36.2 17.2,27.6 20.6,28.3 C22.6,28.7 22.3,29.8 21.3,32.6 C20.8,34 18.4,41.2 18.4,45.1 L14,45.1 C13.1,45.1 12.3,45.9 12.3,46.8 L12.3,46.9 L12.3,47 C12.3,47.9 13.1,48.7 14,48.7 L35.1,48.7 C36,48.7 36.8,47.9 36.8,47 L36.8,46.9 L36.8,46.8 C36.8,45.9 36,45.1 35.1,45.1 L31.1,45.1 C33,42 34.3,37.1 30.4,31 C27.4,26.4 27.8,23.2 30.8,20 C32.2,18.5 34.8,14.7 36.1,10.9 C40.1,14.2 42.6,19.2 42.6,24.8 C42.6,30.1 40.3,35.1 36.3,38.5 C35.5,39 35,40 35,41 C35,42.7 36.3,44 38,44 C38.8,44 39.5,43.7 40,43.2 L40,43.2 C45.5,38.6 48.6,31.9 48.6,24.8 C48.6,11.5 37.8,0.7 24.5,0.7 C11.2,0.7 0.4,11.5 0.4,24.8 C0.5,31.9 3.6,38.6 9.1,43.2 L9.1,43.2 Z M24.6,6.7 C27.7,6.7 30.6,7.5 33.2,8.9 C32.1,11.9 29.9,15.8 24.9,19 C14.9,25.4 11.9,33 11.6,37.4 C8.3,34 6.5,29.5 6.5,24.8 C6.5,14.8 14.6,6.7 24.6,6.7 L24.6,6.7 Z" id="Shape"></path>
                <path d="M35.1,50.6 L14,50.6 C13.1,50.6 12.3,51.4 12.3,52.3 L12.3,52.4 L12.3,52.5 C12.3,53.4 13.1,54.2 14,54.2 L35.1,54.2 C36,54.2 36.8,53.4 36.8,52.5 L36.8,52.4 L36.8,52.3 C36.8,51.4 36.1,50.6 35.1,50.6 L35.1,50.6 Z" id="Shape"></path>
                <path d="M35.1,56.1 L14,56.1 C13.1,56.1 12.3,56.9 12.3,57.8 L12.3,57.9 L12.3,58 C12.3,58.9 13.1,59.7 14,59.7 L35.1,59.7 C36,59.7 36.8,58.9 36.8,58 L36.8,57.9 L36.8,57.8 C36.8,56.8 36.1,56.1 35.1,56.1 L35.1,56.1 Z" id="Shape"></path>
            </g>
        </g>
    </g>
</svg>
